src/components/Chapters/assets/textBalloon.svg

<svg width="501" height="469" viewBox="0 0 501 469" fill="none" xmlns="http://www.w3.org/2000/svg">
<path fill-rule="evenodd" clip-rule="evenodd" d="M492.998 5.70219L11.2129 0L19.2155 326.861L247.08 329.558L211.643 463.008L309.16 330.292L501 332.563L492.998 5.70219Z" fill="#CBBEBD"/>
<path fill-rule="evenodd" clip-rule="evenodd" d="M481.785 11.6944L0 5.99219L8.00264 332.853L233.747 335.525L201.664 469L289.999 336.19L489.787 338.555L481.785 11.6944Z" fill="#FFF1F0"/>
</svg>

<svg width="501" height="469" fill="none" xmlns="http://www.w3.org/2000/svg"><path fill-rule="evenodd" clip-rule="evenodd" d="M492.998 5.702L11.213 0l8.002 326.861 227.865 2.697-35.437 133.45 97.517-132.716L501 332.563l-8.002-326.86z" fill="#CBBEBD"/><path fill-rule="evenodd" clip-rule="evenodd" d="M481.785 11.694L0 5.992l8.003 326.861 225.744 2.672L201.664 469l88.335-132.81 199.788 2.365-8.002-326.86z" fill="#FFF1F0"/></svg>
